X:1
T:The 51st Highland Division at Wadi Akarit
R:March
Z:Transcribed 16 September, 2016 by Stephen Beitzel
C:W. MacDonald, Arr. STPB
M:2/4
L:1/8
K:D
[|: a/2>g/2 | {fg}fa {Gdc}d>c | {gBd}B{Gdc}d {g}A>{d}B | {g}A{Gdc}d {g}fA | {fg}f2 {g}ea/2>g/2 |
{fg}fa {Gdc}d>c | {gBd}B{Gdc}d {g}A>{d}B | {g}A{d}c {gf}gc | {gef}e2 {Gdc}d :|]
[|: {gcd}c/2>B/2 | {g}A{Gdc}d {gdG}df | {ag}a>A {gcd}ce | {gf}g>e {gcd}c{e}A | {gf}g>e {gcd}ce |
{g}A{Gdc}d {gdG}df | {ag}a>A {gcd}ce | {g}A{d}c {gf}gc | {gef}e2 {Gdc}d :|]
[|: {g}f/2>g/2 | {ag}a>g {fg}fd | {gf}g>e {gcd}c{e}A | {gf}g>e {gcd}ce | {gef}e>d {gcd}c{e}A |
{ag}a>g {fg}fd | {gf}g>e {gcd}ce | {g}A{d}c {gf}gc | {gef}e2 {Gdc}d :|]
[|: {g}c/2>B/2 | {g}A{Gdc}d {g}d/2>c/2{g}d/2<f/2 | {g}A{Gdc}d {g}f{ag}a | A{d}c {g}c/2<e/2{g}c/2<e | {g}A{d}c {gef}ef |
{g}A{Gdc}d {g}d/2>c/2{g}d/2<f/2 | {g}A{Gdc}d {g}f{ag}a | A{d}c {gf}gc | {gef}e2 {Gdc}d :|]
%%newpage
